src/assets/outline/Paperclip2.svg

<svg width="24" height="24" viewBox="0 0 24 24"  xmlns="http://www.w3.org/2000/svg">
<path d="M12.33 21.34C11.24 21.34 10.15 20.93 9.32004 20.1C7.66004 18.44 7.66004 15.75 9.32004 14.09L11.8 11.62C12.09 11.33 12.57 11.33 12.86 11.62C13.15 11.91 13.15 12.39 12.86 12.68L10.38 15.15C9.31004 16.22 9.31004 17.97 10.38 19.04C11.45 20.11 13.2 20.11 14.27 19.04L18.16 15.15C19.34 13.97 19.99 12.4 19.99 10.73C19.99 9.05998 19.34 7.48998 18.16 6.30999C15.72 3.86999 11.76 3.86999 9.32004 6.30999L5.08004 10.55C4.09004 11.54 3.54004 12.86 3.54004 14.26C3.54004 15.66 4.09004 16.98 5.08004 17.97C5.37004 18.26 5.37004 18.74 5.08004 19.03C4.79004 19.32 4.31004 19.32 4.02004 19.03C2.75004 17.75 2.04004 16.06 2.04004 14.26C2.04004 12.46 2.74004 10.76 4.02004 9.48998L8.26004 5.24999C11.28 2.22999 16.2 2.22999 19.22 5.24999C20.68 6.70999 21.49 8.65998 21.49 10.73C21.49 12.8 20.68 14.75 19.22 16.21L15.33 20.1C14.5 20.93 13.42 21.34 12.33 21.34Z" />
</svg>

<?xml version="1.0" encoding="UTF-8"?>
<svg width="24" height="24" viewBox="0 0 24 24" xmlns="http://www.w3.org/2000/svg">
 <path d="m12.33 21.34c-1.09 0-2.18-0.41-3.01-1.24-1.66-1.66-1.66-4.35 0-6.01l2.48-2.47c0.29-0.29 0.77-0.29 1.06 0s0.29 0.77 0 1.06l-2.48 2.47c-1.07 1.07-1.07 2.82 0 3.89 1.07 1.07 2.82 1.07 3.89 0l3.89-3.89c1.18-1.18 1.83-2.75 1.83-4.42 0-1.67-0.65-3.24-1.83-4.42-2.44-2.44-6.4-2.44-8.84 0l-4.24 4.24c-0.99 0.99-1.54 2.31-1.54 3.71s0.55 2.72 1.54 3.71c0.29 0.29 0.29 0.77 0 1.06s-0.77 0.29-1.06 0c-1.27-1.28-1.98-2.97-1.98-4.77s0.7-3.5 1.98-4.77l4.24-4.24c3.02-3.02 7.94-3.02 10.96 0 1.46 1.46 2.27 3.41 2.27 5.48 0 2.07-0.81 4.02-2.27 5.48l-3.89 3.89c-0.83 0.83-1.91 1.24-3 1.24z"/>
</svg>
